img/mask-bg.svg

<svg xmlns="http://www.w3.org/2000/svg" fill="none" viewBox="0 0 1440 902"><path fill="#fff" d="M363.631 1C163.784 1 0 34.95 0 34.95v835.565s163.784-33.949 363.631-33.949c199.847 0 356.369 33.949 356.369 33.949S879.026 901 1085.89 901c206.85 0 354.11-30.485 354.11-30.485V34.949s-147.26 30.485-354.11 30.485C879.026 65.434 720 34.95 720 34.95S563.478 1 363.631 1z"/><path stroke="#000" stroke-opacity=".1" stroke-width="2" d="M0 34.95S163.784 1 363.631 1C563.478 1 720 34.95 720 34.95s159.026 30.484 365.89 30.484c206.85 0 354.11-30.485 354.11-30.485M0 452.732s161.781-152.771 361.628-152.771C561.475 299.961 720 452.732 720 452.732s155.52 159.7 362.38 159.7c206.86 0 357.62-159.7 357.62-159.7M0 870.515s163.784-33.949 363.631-33.949c199.847 0 356.369 33.949 356.369 33.949S879.026 901 1085.89 901c206.85 0 354.11-30.485 354.11-30.485"/><path stroke="#000" stroke-opacity=".1" stroke-width="2" d="M0 61.06s163.659-41.375 363.506-41.375C563.353 19.685 720 61.061 720 61.061s158.807 38.56 365.67 38.56c206.86 0 354.33-38.56 354.33-38.56"/><path stroke="#000" stroke-opacity=".1" stroke-width="2" d="M0 87.172S163.534 38.37 363.381 38.37C563.228 38.37 720 87.172 720 87.172s158.588 46.637 365.45 46.637c206.86 0 354.55-46.637 354.55-46.637"/><path stroke="#000" stroke-opacity=".1" stroke-width="2" d="M0 113.283s163.409-56.228 363.256-56.228C563.103 57.055 720 113.283 720 113.283s158.369 54.713 365.23 54.713c206.86 0 354.77-54.713 354.77-54.713"/><path stroke="#000" stroke-opacity=".1" stroke-width="2" d="M0 139.395S163.283 75.74 363.13 75.74 720 139.395 720 139.395s158.15 62.789 365.01 62.789c206.86 0 354.99-62.789 354.99-62.789"/><path stroke="#000" stroke-opacity=".1" stroke-width="2" d="M0 165.506s163.158-71.08 363.005-71.08S720 165.505 720 165.505s157.93 70.865 364.79 70.865S1440 165.506 1440 165.506"/><path stroke="#000" stroke-opacity=".1" stroke-width="2" d="M0 191.618s163.033-78.508 362.88-78.508S720 191.618 720 191.618s157.711 78.94 364.57 78.94c206.86 0 355.43-78.94 355.43-78.94"/><path stroke="#000" stroke-opacity=".1" stroke-width="2" d="M0 217.729s162.908-85.934 362.755-85.934S720 217.729 720 217.729s157.492 87.017 364.35 87.017c206.86 0 355.65-87.017 355.65-87.017"/><path stroke="#000" stroke-opacity=".1" stroke-width="2" d="M0 243.841s162.783-93.361 362.63-93.361S720 243.841 720 243.841s157.273 95.092 364.13 95.092c206.86 0 355.87-95.092 355.87-95.092"/><path stroke="#000" stroke-opacity=".1" stroke-width="2" d="M0 269.952s162.657-100.787 362.504-100.787S720 269.952 720 269.952 877.054 373.12 1083.91 373.12c206.86 0 356.09-103.168 356.09-103.168"/><path stroke="#000" stroke-opacity=".1" stroke-width="2" d="M0 296.064S162.532 187.85 362.379 187.85 720 296.064 720 296.064s156.835 111.244 363.69 111.244c206.86 0 356.31-111.244 356.31-111.244"/><path stroke="#000" stroke-opacity=".1" stroke-width="2" d="M0 322.175s162.407-115.639 362.254-115.639S720 322.175 720 322.175s156.616 119.32 363.47 119.32c206.86 0 356.53-119.32 356.53-119.32"/><path stroke="#000" stroke-opacity=".1" stroke-width="2" d="M0 348.286s162.282-123.065 362.129-123.065S720 348.286 720 348.286s156.397 127.396 363.26 127.396c206.85 0 356.74-127.396 356.74-127.396"/><path stroke="#000" stroke-opacity=".1" stroke-width="2" d="M0 374.398s162.157-130.492 362.003-130.492C561.85 243.906 720 374.398 720 374.398S876.177 509.87 1083.04 509.87c206.86 0 356.96-135.472 356.96-135.472"/><path stroke="#000" stroke-opacity=".1" stroke-width="2" d="M0 400.509s162.031-137.918 361.878-137.918C561.725 262.591 720 400.509 720 400.509s155.958 143.548 362.82 143.548c206.86 0 357.18-143.548 357.18-143.548"/><path stroke="#000" stroke-opacity=".1" stroke-width="2" d="M0 426.621s161.906-145.345 361.753-145.345C561.6 281.276 720 426.621 720 426.621s155.739 151.624 362.6 151.624c206.86 0 357.4-151.624 357.4-151.624"/><path stroke="#000" stroke-opacity=".1" stroke-width="2" d="M0 478.844s161.906-145.345 361.753-145.345C561.6 333.499 720 478.844 720 478.844s155.739 151.623 362.6 151.623c206.86 0 357.4-151.623 357.4-151.623"/><path stroke="#000" stroke-opacity=".1" stroke-width="2" d="M0 504.955s162.031-137.919 361.878-137.919C561.725 367.036 720 504.955 720 504.955s155.958 143.548 362.82 143.548c206.86 0 357.18-143.548 357.18-143.548"/><path stroke="#000" stroke-opacity=".1" stroke-width="2" d="M0 531.066s162.157-130.492 362.003-130.492C561.85 400.574 720 531.066 720 531.066s156.177 135.472 363.04 135.472c206.86 0 356.96-135.472 356.96-135.472"/><path stroke="#000" stroke-opacity=".1" stroke-width="2" d="M0 557.178s162.282-123.066 362.129-123.066S720 557.178 720 557.178s156.397 127.396 363.26 127.396c206.85 0 356.74-127.396 356.74-127.396"/><path stroke="#000" stroke-opacity=".1" stroke-width="2" d="M0 583.289S162.407 467.65 362.254 467.65 720 583.289 720 583.289s156.616 119.32 363.47 119.32c206.86 0 356.53-119.32 356.53-119.32"/><path stroke="#000" stroke-opacity=".1" stroke-width="2" d="M0 609.401s162.532-108.213 362.379-108.213S720 609.401 720 609.401s156.835 111.244 363.69 111.244c206.86 0 356.31-111.244 356.31-111.244"/><path stroke="#000" stroke-opacity=".1" stroke-width="2" d="M0 635.512s162.657-100.787 362.504-100.787S720 635.512 720 635.512 877.054 738.68 1083.91 738.68c206.86 0 356.09-103.168 356.09-103.168"/><path stroke="#000" stroke-opacity=".1" stroke-width="2" d="M0 661.624s162.783-93.361 362.63-93.361S720 661.624 720 661.624s157.273 95.092 364.13 95.092c206.86 0 355.87-95.092 355.87-95.092"/><path stroke="#000" stroke-opacity=".1" stroke-width="2" d="M0 687.735s162.908-85.934 362.755-85.934S720 687.735 720 687.735s157.492 87.016 364.35 87.016c206.86 0 355.65-87.016 355.65-87.016"/><path stroke="#000" stroke-opacity=".1" stroke-width="2" d="M0 713.846s163.033-78.507 362.88-78.507S720 713.846 720 713.846s157.711 78.941 364.57 78.941c206.86 0 355.43-78.941 355.43-78.941"/><path stroke="#000" stroke-opacity=".1" stroke-width="2" d="M0 739.958s163.158-71.081 363.005-71.081S720 739.958 720 739.958s157.93 70.864 364.79 70.864S1440 739.958 1440 739.958"/><path stroke="#000" stroke-opacity=".1" stroke-width="2" d="M0 766.069s163.283-63.654 363.13-63.654S720 766.069 720 766.069s158.15 62.789 365.01 62.789c206.86 0 354.99-62.789 354.99-62.789"/><path stroke="#000" stroke-opacity=".1" stroke-width="2" d="M0 792.181s163.409-56.229 363.256-56.229c199.847 0 356.744 56.229 356.744 56.229s158.369 54.712 365.23 54.712c206.86 0 354.77-54.712 354.77-54.712"/><path stroke="#000" stroke-opacity=".1" stroke-width="2" d="M0 818.292s163.534-48.802 363.381-48.802C563.228 769.49 720 818.292 720 818.292s158.588 46.637 365.45 46.637c206.86 0 354.55-46.637 354.55-46.637"/><path stroke="#000" stroke-opacity=".1" stroke-width="2" d="M0 844.404s163.659-41.376 363.506-41.376c199.847 0 356.494 41.376 356.494 41.376s158.807 38.561 365.67 38.561c206.86 0 354.33-38.561 354.33-38.561"/></svg>

<svg width="1440" height="902" viewBox="0 0 1440 902" fill="none" xmlns="http://www.w3.org/2000/svg">
<path d="M363.631 1C163.784 1 0 34.9492 0 34.9492V870.515C0 870.515 163.784 836.566 363.631 836.566C563.478 836.566 720 870.515 720 870.515C720 870.515 879.026 901 1085.89 901C1292.74 901 1440 870.515 1440 870.515V34.9492C1440 34.9492 1292.74 65.4342 1085.89 65.4342C879.026 65.4342 720 34.9492 720 34.9492C720 34.9492 563.478 1 363.631 1Z" fill="white"/>
<path d="M0 34.9492C0 34.9492 163.784 1 363.631 1C563.478 1 720 34.9492 720 34.9492C720 34.9492 879.026 65.4342 1085.89 65.4342C1292.74 65.4342 1440 34.9492 1440 34.9492" stroke="black" stroke-opacity="0.1" stroke-width="2"/>
<path d="M0 452.732C0 452.732 161.781 299.961 361.628 299.961C561.475 299.961 720 452.732 720 452.732C720 452.732 875.52 612.432 1082.38 612.432C1289.24 612.432 1440 452.732 1440 452.732" stroke="black" stroke-opacity="0.1" stroke-width="2"/>
<path d="M0 870.515C0 870.515 163.784 836.566 363.631 836.566C563.478 836.566 720 870.515 720 870.515C720 870.515 879.026 901 1085.89 901C1292.74 901 1440 870.515 1440 870.515" stroke="black" stroke-opacity="0.1" stroke-width="2"/>
<path d="M0 61.0606C0 61.0606 163.659 19.6851 363.506 19.6851C563.353 19.6851 720 61.0606 720 61.0606C720 61.0606 878.807 99.6216 1085.67 99.6216C1292.53 99.6216 1440 61.0606 1440 61.0606" stroke="black" stroke-opacity="0.1" stroke-width="2"/>
<path d="M0 87.1721C0 87.1721 163.534 38.3701 363.381 38.3701C563.228 38.3701 720 87.1721 720 87.1721C720 87.1721 878.588 133.809 1085.45 133.809C1292.31 133.809 1440 87.1721 1440 87.1721" stroke="black" stroke-opacity="0.1" stroke-width="2"/>
<path d="M0 113.283C0 113.283 163.409 57.0551 363.256 57.0551C563.103 57.0551 720 113.283 720 113.283C720 113.283 878.369 167.996 1085.23 167.996C1292.09 167.996 1440 113.283 1440 113.283" stroke="black" stroke-opacity="0.1" stroke-width="2"/>
<path d="M0 139.395C0 139.395 163.283 75.7402 363.13 75.7402C562.977 75.7402 720 139.395 720 139.395C720 139.395 878.15 202.184 1085.01 202.184C1291.87 202.184 1440 139.395 1440 139.395" stroke="black" stroke-opacity="0.1" stroke-width="2"/>
<path d="M0 165.506C0 165.506 163.158 94.4252 363.005 94.4252C562.852 94.4252 720 165.506 720 165.506C720 165.506 877.93 236.371 1084.79 236.371C1291.65 236.371 1440 165.506 1440 165.506" stroke="black" stroke-opacity="0.1" stroke-width="2"/>
<path d="M0 191.618C0 191.618 163.033 113.11 362.88 113.11C562.727 113.11 720 191.618 720 191.618C720 191.618 877.711 270.558 1084.57 270.558C1291.43 270.558 1440 191.618 1440 191.618" stroke="black" stroke-opacity="0.1" stroke-width="2"/>
<path d="M0 217.729C0 217.729 162.908 131.795 362.755 131.795C562.602 131.795 720 217.729 720 217.729C720 217.729 877.492 304.746 1084.35 304.746C1291.21 304.746 1440 217.729 1440 217.729" stroke="black" stroke-opacity="0.1" stroke-width="2"/>
<path d="M0 243.841C0 243.841 162.783 150.48 362.63 150.48C562.477 150.48 720 243.841 720 243.841C720 243.841 877.273 338.933 1084.13 338.933C1290.99 338.933 1440 243.841 1440 243.841" stroke="black" stroke-opacity="0.1" stroke-width="2"/>
<path d="M0 269.952C0 269.952 162.657 169.165 362.504 169.165C562.351 169.165 720 269.952 720 269.952C720 269.952 877.054 373.12 1083.91 373.12C1290.77 373.12 1440 269.952 1440 269.952" stroke="black" stroke-opacity="0.1" stroke-width="2"/>
<path d="M0 296.064C0 296.064 162.532 187.85 362.379 187.85C562.226 187.85 720 296.064 720 296.064C720 296.064 876.835 407.308 1083.69 407.308C1290.55 407.308 1440 296.064 1440 296.064" stroke="black" stroke-opacity="0.1" stroke-width="2"/>
<path d="M0 322.175C0 322.175 162.407 206.536 362.254 206.536C562.101 206.536 720 322.175 720 322.175C720 322.175 876.616 441.495 1083.47 441.495C1290.33 441.495 1440 322.175 1440 322.175" stroke="black" stroke-opacity="0.1" stroke-width="2"/>
<path d="M0 348.286C0 348.286 162.282 225.221 362.129 225.221C561.976 225.221 720 348.286 720 348.286C720 348.286 876.397 475.682 1083.26 475.682C1290.11 475.682 1440 348.286 1440 348.286" stroke="black" stroke-opacity="0.1" stroke-width="2"/>
<path d="M0 374.398C0 374.398 162.157 243.906 362.003 243.906C561.85 243.906 720 374.398 720 374.398C720 374.398 876.177 509.87 1083.04 509.87C1289.9 509.87 1440 374.398 1440 374.398" stroke="black" stroke-opacity="0.1" stroke-width="2"/>
<path d="M0 400.509C0 400.509 162.031 262.591 361.878 262.591C561.725 262.591 720 400.509 720 400.509C720 400.509 875.958 544.057 1082.82 544.057C1289.68 544.057 1440 400.509 1440 400.509" stroke="black" stroke-opacity="0.1" stroke-width="2"/>
<path d="M0 426.621C0 426.621 161.906 281.276 361.753 281.276C561.6 281.276 720 426.621 720 426.621C720 426.621 875.739 578.245 1082.6 578.245C1289.46 578.245 1440 426.621 1440 426.621" stroke="black" stroke-opacity="0.1" stroke-width="2"/>
<path d="M0 478.844C0 478.844 161.906 333.499 361.753 333.499C561.6 333.499 720 478.844 720 478.844C720 478.844 875.739 630.467 1082.6 630.467C1289.46 630.467 1440 478.844 1440 478.844" stroke="black" stroke-opacity="0.1" stroke-width="2"/>
<path d="M0 504.955C0 504.955 162.031 367.036 361.878 367.036C561.725 367.036 720 504.955 720 504.955C720 504.955 875.958 648.503 1082.82 648.503C1289.68 648.503 1440 504.955 1440 504.955" stroke="black" stroke-opacity="0.1" stroke-width="2"/>
<path d="M0 531.066C0 531.066 162.157 400.574 362.003 400.574C561.85 400.574 720 531.066 720 531.066C720 531.066 876.177 666.538 1083.04 666.538C1289.9 666.538 1440 531.066 1440 531.066" stroke="black" stroke-opacity="0.1" stroke-width="2"/>
<path d="M0 557.178C0 557.178 162.282 434.112 362.129 434.112C561.976 434.112 720 557.178 720 557.178C720 557.178 876.397 684.574 1083.26 684.574C1290.11 684.574 1440 557.178 1440 557.178" stroke="black" stroke-opacity="0.1" stroke-width="2"/>
<path d="M0 583.289C0 583.289 162.407 467.65 362.254 467.65C562.101 467.65 720 583.289 720 583.289C720 583.289 876.616 702.609 1083.47 702.609C1290.33 702.609 1440 583.289 1440 583.289" stroke="black" stroke-opacity="0.1" stroke-width="2"/>
<path d="M0 609.401C0 609.401 162.532 501.188 362.379 501.188C562.226 501.188 720 609.401 720 609.401C720 609.401 876.835 720.645 1083.69 720.645C1290.55 720.645 1440 609.401 1440 609.401" stroke="black" stroke-opacity="0.1" stroke-width="2"/>
<path d="M0 635.512C0 635.512 162.657 534.725 362.504 534.725C562.351 534.725 720 635.512 720 635.512C720 635.512 877.054 738.68 1083.91 738.68C1290.77 738.68 1440 635.512 1440 635.512" stroke="black" stroke-opacity="0.1" stroke-width="2"/>
<path d="M0 661.624C0 661.624 162.783 568.263 362.63 568.263C562.477 568.263 720 661.624 720 661.624C720 661.624 877.273 756.716 1084.13 756.716C1290.99 756.716 1440 661.624 1440 661.624" stroke="black" stroke-opacity="0.1" stroke-width="2"/>
<path d="M0 687.735C0 687.735 162.908 601.801 362.755 601.801C562.602 601.801 720 687.735 720 687.735C720 687.735 877.492 774.751 1084.35 774.751C1291.21 774.751 1440 687.735 1440 687.735" stroke="black" stroke-opacity="0.1" stroke-width="2"/>
<path d="M0 713.846C0 713.846 163.033 635.339 362.88 635.339C562.727 635.339 720 713.846 720 713.846C720 713.846 877.711 792.787 1084.57 792.787C1291.43 792.787 1440 713.846 1440 713.846" stroke="black" stroke-opacity="0.1" stroke-width="2"/>
<path d="M0 739.958C0 739.958 163.158 668.877 363.005 668.877C562.852 668.877 720 739.958 720 739.958C720 739.958 877.93 810.822 1084.79 810.822C1291.65 810.822 1440 739.958 1440 739.958" stroke="black" stroke-opacity="0.1" stroke-width="2"/>
<path d="M0 766.069C0 766.069 163.283 702.415 363.13 702.415C562.977 702.415 720 766.069 720 766.069C720 766.069 878.15 828.858 1085.01 828.858C1291.87 828.858 1440 766.069 1440 766.069" stroke="black" stroke-opacity="0.1" stroke-width="2"/>
<path d="M0 792.181C0 792.181 163.409 735.952 363.256 735.952C563.103 735.952 720 792.181 720 792.181C720 792.181 878.369 846.893 1085.23 846.893C1292.09 846.893 1440 792.181 1440 792.181" stroke="black" stroke-opacity="0.1" stroke-width="2"/>
<path d="M0 818.292C0 818.292 163.534 769.49 363.381 769.49C563.228 769.49 720 818.292 720 818.292C720 818.292 878.588 864.929 1085.45 864.929C1292.31 864.929 1440 818.292 1440 818.292" stroke="black" stroke-opacity="0.1" stroke-width="2"/>
<path d="M0 844.404C0 844.404 163.659 803.028 363.506 803.028C563.353 803.028 720 844.404 720 844.404C720 844.404 878.807 882.965 1085.67 882.965C1292.53 882.965 1440 844.404 1440 844.404" stroke="black" stroke-opacity="0.1" stroke-width="2"/>
</svg>
